X: 993
T: the Merry Merchant   #2    "Canny Sugach"
T: an ceannui\.de suga\.c
R: reel
%S: s:2 b:8(4+4)
B: Francis O'Neill: "The Dance Music of Ireland" (1907) #993
Z: Frank Nordberg - http://www.musicaviva.com
F: http://www.musicaviva.com/abc/tunes/ireland/oneill-1001/0993/oneill-1001-0993-1.abc
%m: Tn2 = (3n/o/n/ m/n/
M: C
L: 1/8
K: D
"^A"[|](AG) | Addc ABAG | Addc TB2(AG) | Addc ABAF | GFGA TB2 :|
"^B"|: (Bd) | cAAF GFGA | FDDG TB2(Bd) | cAAF GFGA | FDEC  D2 :|
